public/images/hashed/93255de5a057524d60e1bb809c6f7ffb.svg

<?xml version="1.0" encoding="UTF-8"?>
<svg width="80px" height="80px" viewBox="0 0 80 80" version="1.1" xmlns="http://www.w3.org/2000/svg" xmlns:xlink="http://www.w3.org/1999/xlink">
    <!-- Generator: Sketch 64 (93537) - https://sketch.com -->
    <title>Icon-Architecture/64/Arch_AWS-Wavelength_64</title>
    <desc>Created with Sketch.</desc>
    <defs>
        <linearGradient x1="0%" y1="100%" x2="100%" y2="0%" id="linearGradient-1">
            <stop stop-color="#C8511B" offset="0%"></stop>
            <stop stop-color="#FF9900" offset="100%"></stop>
        </linearGradient>
    </defs>
    <g id="Icon-Architecture/64/Arch_AWS-Wavelength_64" stroke="none" stroke-width="1" fill="none" fill-rule="evenodd">
        <g id="Icon-Architecture-BG/64/Compute" fill="url(#linearGradient-1)">
            <rect id="Rectangle" x="0" y="0" width="80" height="80"></rect>
        </g>
        <path d="M40,60.3862258 C38.408,60.3862258 36.854,60.2219142 35.354,59.9104279 L39.498,42.8089212 L41.479,51.347074 C41.479,51.348082 41.477,51.3500981 41.475,51.3511062 L41.484,51.3642108 L43.515,60.1150613 C42.368,60.2934855 41.195,60.3862258 40,60.3862258 L40,60.3862258 Z M25.467,39.0972945 L31.51,39.0972945 C31.75,44.0276493 33.048,48.4368441 35.059,51.1494969 C29.845,49.3430778 26.096,44.6596943 25.467,39.0972945 L25.467,39.0972945 Z M35.064,23.7366839 C34.05,25.1035948 33.208,26.9180782 32.591,29.0390078 C31.279,28.7305456 30.061,28.3374075 28.972,27.8616096 C30.601,26.000756 32.69,24.565298 35.064,23.7366839 L35.064,23.7366839 Z M50.47,27.781974 C49.402,28.2628121 48.195,28.6569582 46.904,28.9755009 C46.288,26.8827966 45.454,25.0894821 44.449,23.7366839 C46.789,24.5532014 48.852,25.9594261 50.47,27.781974 L50.47,27.781974 Z M44.439,51.1615934 C46.434,48.4620453 47.759,44.0468022 48.003,39.0972945 L54.045,39.0972945 C53.403,44.6334851 49.612,49.3551743 44.439,51.1615934 L44.439,51.1615934 Z M46,39.0972945 C45.775,43.3603226 44.699,47.2050114 43.121,49.5698882 L40.691,39.0972945 L46,39.0972945 Z M48.04,37.0812017 C48.018,34.8897089 47.797,32.8111173 47.401,30.9240545 C48.987,30.5319245 50.448,30.020845 51.73,29.4008964 C53.195,31.6105341 54.064,34.2465753 54.133,37.0812017 L48.04,37.0812017 Z M39.757,22.9292387 C41.712,22.9292387 43.75,25.3515742 44.959,29.3827516 C43.269,29.6700448 41.469,29.826292 39.621,29.826292 C37.868,29.826292 36.154,29.6902057 34.54,29.4311378 C35.748,25.3707271 37.794,22.9292387 39.757,22.9292387 L39.757,22.9292387 Z M34.049,31.3877558 C35.823,31.6841215 37.702,31.8423847 39.621,31.8423847 C41.635,31.8423847 43.602,31.6629525 45.454,31.3383616 C45.809,33.0500243 46.019,34.9804331 46.041,37.0812017 L33.473,37.0812017 C33.495,35.000594 33.7,33.087322 34.049,31.3877558 L34.049,31.3877558 Z M25.381,37.0812017 C25.448,34.2909294 26.295,31.6942019 27.72,29.5057333 C29.021,30.1135852 30.501,30.6105521 32.099,30.9895775 C31.712,32.8595035 31.496,34.913902 31.474,37.0812017 L25.381,37.0812017 Z M35.968,48.8773604 C34.608,46.4711537 33.715,42.9429914 33.513,39.0972945 L38.339,39.0972945 L35.968,48.8773604 Z M65,37.2011593 C65,34.1447627 64.463,31.1569132 63.403,28.3202707 L61.532,29.0309434 C62.506,31.6387594 63,34.3877018 63,37.2011593 C63,48.0830198 55.522,57.2340648 45.476,59.716883 L44.008,53.391392 C51.043,51.47812 56.151,44.9298508 56.151,37.4400662 C56.151,28.3273271 48.797,20.913146 39.757,20.913146 C30.717,20.913146 23.362,28.3273271 23.362,37.4400662 C23.362,44.7705794 28.121,51.1132072 34.916,53.2210322 L33.414,59.413461 C23.932,56.5506093 17,47.6787932 17,37.2011593 C17,24.4171152 27.317,14.0160927 40,14.0160927 C45.562,14.0160927 50.805,15.9898475 54.969,19.6026857 L50.286,19.6026857 L50.286,21.6187785 L58.143,21.6187785 L58.143,13.6995662 L56.143,13.6995662 L56.143,17.9605782 C51.638,14.1027847 45.989,12 40,12 C26.215,12 15,23.30524 15,37.2011593 C15,48.6253488 22.583,58.2925135 32.939,61.3720951 L31.449,67.521178 L33.393,68 L34.879,61.869062 C36.532,62.216838 38.245,62.4023185 40,62.4023185 C41.352,62.4023185 42.677,62.2904254 43.971,62.0807517 L45.342,67.9899195 L47.289,67.5312584 L45.932,61.6795493 C56.861,58.9880655 65,49.0376397 65,37.2011593 L65,37.2011593 Z" id="AWS-Wavelength_Icon_64_Squid" fill="#FFFFFF"></path>
    </g>
</svg>

<svg xmlns="http://www.w3.org/2000/svg" width="80" height="80"><defs><linearGradient id="a" x1="0%" x2="100%" y1="100%" y2="0%"><stop offset="0%" stop-color="#C8511B"/><stop offset="100%" stop-color="#F90"/></linearGradient></defs><g fill="none" fill-rule="evenodd"><path fill="url(#a)" d="M0 0h80v80H0z"/><path fill="#FFF" d="M40 60.386c-1.592 0-3.146-.164-4.646-.476l4.144-17.101 1.981 8.538-.004.004.009.013 2.031 8.751c-1.147.178-2.32.271-3.515.271ZM25.467 39.097h6.043c.24 4.93 1.538 9.34 3.549 12.052-5.214-1.806-8.963-6.49-9.592-12.052Zm9.597-15.36c-1.014 1.367-1.856 3.181-2.473 5.302a21.185 21.185 0 0 1-3.619-1.177 14.418 14.418 0 0 1 6.092-4.125Zm15.406 4.045c-1.068.48-2.275.875-3.566 1.194-.616-2.093-1.45-3.887-2.455-5.24a14.402 14.402 0 0 1 6.021 4.046Zm-6.031 23.38c1.995-2.7 3.32-7.115 3.564-12.065h6.042c-.642 5.536-4.433 10.258-9.606 12.065ZM46 39.097c-.225 4.263-1.301 8.108-2.879 10.473l-2.43-10.473H46Zm2.04-2.016c-.022-2.191-.243-4.27-.639-6.157 1.586-.392 3.047-.903 4.329-1.523a14.493 14.493 0 0 1 2.403 7.68H48.04ZM39.757 22.93c1.955 0 3.993 2.423 5.202 6.454-1.69.287-3.49.443-5.338.443-1.753 0-3.467-.136-5.081-.395 1.208-4.06 3.254-6.502 5.217-6.502Zm-5.708 8.459c1.774.296 3.653.454 5.572.454 2.014 0 3.981-.179 5.833-.504.355 1.712.565 3.642.587 5.743H33.473c.022-2.08.227-3.994.576-5.693Zm-8.668 5.693c.067-2.79.914-5.387 2.339-7.575 1.301.608 2.781 1.105 4.379 1.484-.387 1.87-.603 3.924-.625 6.091h-6.093Zm10.587 11.796c-1.36-2.406-2.253-5.934-2.455-9.78h4.826l-2.371 9.78ZM65 37.201c0-3.056-.537-6.044-1.597-8.88l-1.871.71A23.27 23.27 0 0 1 63 37.2c0 10.882-7.478 20.033-17.524 22.516l-1.468-6.326c7.035-1.913 12.143-8.461 12.143-15.95 0-9.114-7.354-16.528-16.394-16.528S23.362 28.327 23.362 37.44c0 7.33 4.759 13.673 11.554 15.781l-1.502 6.192C23.932 56.551 17 47.68 17 37.201c0-12.784 10.317-23.185 23-23.185a22.694 22.694 0 0 1 14.969 5.587h-4.683v2.016h7.857v-7.92h-2v4.262C51.638 14.103 45.989 12 40 12c-13.785 0-25 11.305-25 25.201 0 11.424 7.583 21.092 17.939 24.171l-1.49 6.15 1.944.478 1.486-6.13a24.853 24.853 0 0 0 9.092.21l1.371 5.91 1.947-.459-1.357-5.851C56.861 58.988 65 49.038 65 37.2Z"/></g></svg>
